X:0589
M:6/8
L:1/8
Q:3/8=120
K:D
d   | FGF  TFED|B2B  Bcd| cBA  dAF|ABA  A2::
d   |TcBA   cec|dBB TB2d|TcBA  cec|ABA  A2 \
d   |TcBA   cec|dBB  B2d|TcBA  dAF|A>BA A2::

